X: 1
T: Dogmatix and the Bricklayer
C: Ross Anderson 2002, 2004
R: jig
Z: 2010 John Chambers <jc:trillian.mit.edu>
F: http://www.cl.cam.ac.uk/~rja14/Papers/dogmatix.pdf
M: 6/8
L: 1/8
K: G
   B | GAB def | g3  a2f |1,3 g2d edB | BAA A2 :|2,4 g2d edA | BGG G2 :|
|: d | g2g efg | agf g2d |1,3 g2d edB | BAA A2 :|2,4 g2d edA | BGG G2 :|
|: B | BdG edg | faf g2d |1,3 g2d edB | BAA A2 :|2,4 g2d edA | BGG G2 :|
|: d | gfe dgd | agf g2d |1,3 g2d edB | BAA A2 :|2,4 g2d edA | BGG G2 :|
